icons/opensuse/opensuse-original.svg

<?xml version="1.0" encoding="UTF-8"?>
<svg xmlns="http://www.w3.org/2000/svg" xmlns:xlink="http://www.w3.org/1999/xlink" width="128px" height="128px" viewBox="0 0 128 82" version="1.1">
<g id="surface1">
<path style=" stroke:none;fill-rule:evenodd;fill:rgb(45.098039%,72.941176%,14.509804%);fill-opacity:1;" d="M 109.433594 22.902344 C 108.191406 22.859375 107.007812 23.292969 106.105469 24.132812 C 105.207031 24.96875 104.671875 26.101562 104.636719 27.332031 C 104.550781 29.871094 106.558594 32.007812 109.117188 32.101562 C 110.359375 32.136719 111.546875 31.703125 112.453125 30.863281 C 113.359375 30.023438 113.878906 28.886719 113.917969 27.664062 C 114.007812 25.125 112 22.992188 109.433594 22.902344 Z M 110.195312 27.933594 C 109.054688 27.933594 108.132812 27.320312 108.132812 26.574219 C 108.132812 25.816406 109.054688 25.210938 110.195312 25.210938 C 111.332031 25.210938 112.257812 25.816406 112.257812 26.574219 C 112.257812 27.320312 111.332031 27.933594 110.195312 27.933594 Z M 121.019531 33.414062 C 121.054688 33.390625 121.132812 33.320312 121.121094 33.257812 C 120.863281 31.664062 118.46875 23.941406 116.652344 22.085938 C 116.152344 21.578125 115.753906 21.082031 114.945312 20.609375 C 108.382812 16.824219 92.8125 14.539062 92.085938 14.4375 C 92.085938 14.4375 92.011719 14.421875 91.960938 14.46875 C 91.921875 14.507812 91.914062 14.582031 91.914062 14.582031 C 91.914062 14.582031 91.851562 17.773438 91.84375 18.132812 C 90.253906 17.601562 78.695312 13.90625 67.863281 13.535156 C 58.671875 13.214844 45.292969 12.039062 27.558594 22.832031 L 27.035156 23.15625 C 18.691406 28.308594 12.933594 34.660156 9.921875 42.042969 C 8.976562 44.363281 7.707031 49.605469 8.964844 54.535156 C 9.507812 56.691406 10.519531 58.859375 11.882812 60.796875 C 14.960938 65.179688 20.132812 68.085938 25.699219 68.578125 C 33.558594 69.273438 39.507812 65.777344 41.625 59.234375 C 43.078125 54.71875 41.625 48.09375 36.046875 44.714844 C 31.507812 41.964844 26.628906 42.589844 23.796875 44.441406 C 21.34375 46.054688 19.953125 48.558594 19.976562 51.3125 C 20.03125 56.191406 24.277344 58.785156 27.332031 58.792969 C 28.21875 58.792969 29.109375 58.640625 30.113281 58.316406 C 30.472656 58.207031 30.808594 58.074219 31.179688 57.847656 L 31.292969 57.78125 L 31.367188 57.730469 L 31.34375 57.746094 C 32.039062 57.277344 32.457031 56.511719 32.457031 55.695312 C 32.457031 55.472656 32.425781 55.246094 32.359375 55.015625 C 32 53.78125 30.765625 53.035156 29.488281 53.265625 L 29.316406 53.304688 L 29.082031 53.375 L 28.742188 53.492188 C 28.042969 53.660156 27.515625 53.675781 27.402344 53.679688 C 27.042969 53.65625 25.289062 53.136719 25.289062 51.230469 L 25.289062 51.207031 C 25.289062 50.503906 25.570312 50.015625 25.726562 49.746094 C 26.273438 48.898438 27.769531 48.066406 29.792969 48.238281 C 32.445312 48.464844 34.359375 49.8125 35.628906 52.355469 C 36.804688 54.71875 36.496094 57.625 34.835938 59.753906 C 33.183594 61.863281 30.246094 62.761719 26.339844 62.34375 C 22.398438 61.914062 19.066406 59.667969 17.203125 56.175781 C 15.375 52.757812 15.277344 48.707031 16.945312 45.597656 C 20.933594 38.140625 28.464844 38.21875 32.597656 38.925781 C 38.710938 39.976562 45.664062 45.558594 48.132812 52.003906 C 48.53125 53.03125 48.734375 53.847656 48.910156 54.59375 L 49.175781 55.707031 L 56.082031 59.042969 C 56.230469 59.117188 56.28125 59.140625 56.339844 59.097656 C 56.414062 59.042969 56.371094 58.898438 56.371094 58.898438 C 56.328125 58.746094 56.226562 58.605469 56.070312 56.691406 C 55.9375 54.992188 55.671875 50.34375 58.035156 48.042969 C 58.953125 47.140625 60.351562 46.335938 61.457031 46.082031 C 65.980469 44.984375 71.289062 45.742188 76.308594 51.492188 C 78.90625 54.460938 80.171875 55.816406 80.808594 56.421875 C 80.808594 56.421875 80.953125 56.558594 81.03125 56.621094 C 81.113281 56.691406 81.167969 56.746094 81.292969 56.816406 C 81.5 56.929688 89.921875 60.769531 89.921875 60.769531 C 89.921875 60.769531 90.019531 60.816406 90.09375 60.726562 C 90.167969 60.636719 90.097656 60.546875 90.097656 60.546875 C 90.042969 60.484375 84.761719 53.726562 85.699219 48.160156 C 86.441406 43.730469 90.003906 44.128906 94.933594 44.679688 C 96.542969 44.867188 98.375 45.074219 100.269531 45.117188 C 105.566406 45.152344 111.269531 44.183594 114.785156 42.660156 C 117.058594 41.683594 118.507812 41.03125 119.417969 40.210938 C 119.746094 39.945312 119.914062 39.507812 120.089844 39.039062 L 120.214844 38.730469 C 120.363281 38.351562 120.578125 37.550781 120.671875 37.109375 C 120.710938 36.917969 120.757812 36.726562 120.59375 36.605469 C 120.449219 36.492188 120.109375 36.695312 120.109375 36.695312 C 118.566406 37.613281 114.707031 39.355469 111.097656 39.429688 C 106.621094 39.519531 97.542969 34.941406 96.605469 34.457031 C 95.972656 32.972656 95.347656 31.488281 94.707031 30.011719 C 101.199219 34.246094 106.585938 36.585938 110.707031 36.949219 C 115.296875 37.351562 118.875 34.875 120.425781 33.84375 C 120.628906 33.707031 120.832031 33.558594 121.019531 33.414062 Z M 102.601562 27.320312 C 102.667969 25.5625 103.414062 23.925781 104.710938 22.726562 C 106.011719 21.527344 107.710938 20.90625 109.492188 20.960938 C 113.160156 21.089844 116.042969 24.15625 115.917969 27.785156 C 115.847656 29.546875 115.105469 31.179688 113.808594 32.375 C 112.503906 33.585938 110.8125 34.207031 109.023438 34.148438 C 105.359375 34.015625 102.480469 30.953125 102.601562 27.320312 Z M 102.601562 27.320312 "/>
<path style=" stroke:none;fill-rule:nonzero;fill:rgb(45.098039%,72.941176%,14.509804%);fill-opacity:1;" d="M 92.496094 57.863281 C 93.300781 57.863281 93.941406 58.507812 93.941406 59.316406 C 93.941406 60.136719 93.300781 60.777344 92.492188 60.777344 C 91.6875 60.777344 91.035156 60.136719 91.035156 59.316406 C 91.035156 58.507812 91.6875 57.863281 92.492188 57.863281 Z M 92.492188 58.089844 C 91.84375 58.089844 91.316406 58.636719 91.316406 59.316406 C 91.316406 60.007812 91.84375 60.550781 92.496094 60.550781 C 93.148438 60.558594 93.671875 60.007812 93.671875 59.324219 C 93.671875 58.636719 93.148438 58.089844 92.496094 58.089844 Z M 92.214844 60.164062 L 91.953125 60.164062 L 91.953125 58.542969 C 92.09375 58.523438 92.222656 58.503906 92.417969 58.503906 C 92.667969 58.503906 92.828125 58.554688 92.925781 58.625 C 93.027344 58.695312 93.078125 58.804688 93.078125 58.960938 C 93.078125 59.171875 92.933594 59.304688 92.757812 59.355469 L 92.757812 59.367188 C 92.902344 59.394531 93 59.523438 93.03125 59.761719 C 93.074219 60.015625 93.109375 60.113281 93.136719 60.164062 L 92.863281 60.164062 C 92.824219 60.113281 92.785156 59.964844 92.753906 59.75 C 92.710938 59.542969 92.609375 59.464844 92.398438 59.464844 L 92.214844 59.464844 Z M 92.214844 59.265625 L 92.40625 59.265625 C 92.621094 59.265625 92.804688 59.1875 92.804688 58.988281 C 92.804688 58.84375 92.699219 58.703125 92.40625 58.703125 C 92.320312 58.703125 92.261719 58.707031 92.214844 58.714844 Z M 92.214844 59.265625 "/>
</g>
</svg>

<svg xmlns="http://www.w3.org/2000/svg" viewBox="0 0 128 82"><g fill="#73ba25"><path d="M109.434 22.902a4.614 4.614 0 00-3.329 1.23 4.53 4.53 0 00-1.468 3.2c-.086 2.54 1.922 4.676 4.48 4.77a4.68 4.68 0 003.336-1.239 4.532 4.532 0 001.465-3.199c.09-2.539-1.918-4.672-4.484-4.762zm.761 5.032c-1.14 0-2.062-.614-2.062-1.36 0-.758.922-1.363 2.062-1.363 1.137 0 2.063.605 2.063 1.363 0 .746-.926 1.36-2.063 1.36zm10.825 5.48c.035-.023.113-.094.101-.156-.258-1.594-2.652-9.317-4.469-11.172-.5-.508-.898-1.004-1.707-1.477-6.562-3.785-22.132-6.07-22.86-6.172 0 0-.073-.015-.124.032-.04.039-.047.113-.047.113l-.07 3.55c-1.59-.53-13.149-4.226-23.98-4.597-9.192-.32-22.571-1.496-40.305 9.297l-.524.324C18.691 28.31 12.934 34.66 9.922 42.043c-.945 2.32-2.215 7.562-.957 12.492.543 2.156 1.555 4.324 2.918 6.262 3.078 4.383 8.25 7.289 13.816 7.781 7.86.695 13.809-2.8 15.926-9.344 1.453-4.515 0-11.14-5.578-14.52-4.54-2.75-9.418-2.124-12.25-.273-2.453 1.614-3.844 4.118-3.82 6.871.054 4.88 4.3 7.473 7.355 7.481.887 0 1.777-.152 2.781-.477.36-.109.696-.242 1.067-.468l.113-.067.074-.05-.023.015a2.482 2.482 0 001.113-2.05c0-.223-.031-.45-.098-.68-.359-1.235-1.593-1.98-2.87-1.75l-.173.039-.234.07-.34.117c-.699.168-1.226.184-1.34.188-.359-.024-2.113-.543-2.113-2.45v-.023c0-.703.281-1.191.438-1.46.546-.849 2.043-1.68 4.066-1.509 2.652.227 4.566 1.575 5.836 4.117 1.176 2.364.867 5.27-.793 7.399-1.652 2.11-4.59 3.008-8.496 2.59-3.942-.43-7.274-2.676-9.137-6.168-1.828-3.418-1.926-7.469-.258-10.578 3.989-7.457 11.52-7.38 15.653-6.672 6.113 1.05 13.066 6.633 15.535 13.078.398 1.027.601 1.844.777 2.59l.266 1.113 6.906 3.336c.148.074.2.098.258.055.074-.055.031-.2.031-.2-.043-.152-.144-.293-.3-2.207-.133-1.699-.4-6.347 1.964-8.648.918-.902 2.317-1.707 3.422-1.961 4.523-1.098 9.832-.34 14.852 5.41 2.597 2.969 3.863 4.324 4.5 4.93 0 0 .144.137.222.2.082.07.137.124.262.194.207.114 8.629 3.954 8.629 3.954s.098.046.172-.043c.074-.09.004-.18.004-.18-.055-.063-5.336-6.82-4.399-12.387.742-4.43 4.305-4.031 9.235-3.48 1.609.187 3.441.394 5.336.437 5.296.035 11-.933 14.515-2.457 2.274-.976 3.723-1.629 4.633-2.45.328-.265.496-.702.672-1.17l.125-.31c.148-.378.363-1.18.457-1.62.039-.192.086-.383-.078-.505-.145-.113-.485.09-.485.09-1.543.918-5.402 2.66-9.011 2.735-4.477.09-13.555-4.489-14.493-4.973-.632-1.484-1.257-2.969-1.898-4.445 6.492 4.234 11.879 6.574 16 6.937 4.59.403 8.168-2.074 9.719-3.105.203-.137.406-.285.594-.43zm-18.418-6.094a6.556 6.556 0 012.109-4.593 6.7 6.7 0 014.781-1.766c3.668.129 6.551 3.195 6.426 6.824a6.549 6.549 0 01-2.11 4.59 6.644 6.644 0 01-4.785 1.773c-3.664-.132-6.543-3.195-6.421-6.828zm0 0" fill-rule="evenodd"/><path d="M92.496 57.863c.805 0 1.445.645 1.445 1.453 0 .82-.64 1.461-1.449 1.461a1.45 1.45 0 01-1.457-1.46c0-.81.653-1.454 1.457-1.454zm-.004.227c-.648 0-1.176.547-1.176 1.226 0 .692.528 1.235 1.18 1.235.652.008 1.176-.543 1.176-1.227 0-.687-.524-1.234-1.176-1.234zm-.277 2.074h-.262v-1.621c.14-.02.27-.04.465-.04.25 0 .41.052.508.122.101.07.152.18.152.336 0 .21-.144.344-.32.394v.012c.144.028.242.156.273.395.043.254.078.351.106.402h-.274c-.039-.05-.078-.2-.11-.414-.042-.207-.144-.285-.355-.285h-.183zm0-.898h.191c.215 0 .399-.078.399-.278 0-.144-.106-.285-.399-.285-.086 0-.144.004-.191.012zm0 0"/></g></svg>
